build/assets/images/main-services-item2.svg

<svg width="125" height="114" viewBox="0 0 125 114" fill="none" xmlns="http://www.w3.org/2000/svg">
<path d="M98.402 17.1414V95.7017C98.4027 96.6901 98.2086 97.6689 97.831 98.5823C97.4534 99.4956 96.8995 100.326 96.2011 101.025C95.5027 101.724 94.6733 102.279 93.7604 102.658C92.8475 103.037 91.869 103.232 90.8806 103.233H41.2646C40.2761 103.233 39.2974 103.037 38.3844 102.659C37.4714 102.28 36.6419 101.725 35.9434 101.026C35.2449 100.326 34.6911 99.4962 34.3136 98.5826C33.936 97.6691 33.7422 96.6902 33.7432 95.7017V17.1414C33.7432 15.1466 34.5356 13.2334 35.9461 11.8229C37.3567 10.4124 39.2698 9.61993 41.2646 9.61993H90.8806C92.875 9.62123 94.7874 10.4141 96.1976 11.8243C97.6079 13.2346 98.4007 15.1469 98.402 17.1414Z" fill="#00458B"/>
<path d="M45.9448 62.3089C44.4522 65.9671 41.2109 68.4426 38.4063 71.0595C36.9625 72.4057 35.8479 73.908 34.5602 75.3665C34.3264 75.6186 34.0518 75.8297 33.748 75.9908V61.0455C34.147 59.7773 34.4031 58.4685 34.5114 57.1434C34.9992 58.7506 34.7797 60.7114 36.0186 61.8528C36.8161 62.5991 37.9892 62.7308 39.0794 62.7796C41.3782 62.8731 43.6803 62.7152 45.9448 62.3089Z" fill="url(#paint0_linear)"/>
<path d="M91.7173 16.3194H39.2112V95.0017H91.7173V16.3194Z" fill="url(#paint1_linear)"/>
<path d="M92.4806 15.6976V94.153H46.5521C46.5521 94.153 40.1867 92.8141 39.8501 82.0856C39.5135 71.3571 40.1867 15.6976 40.1867 15.6976H92.4806Z" fill="white"/>
<g clip-path="url(#clip0)">
<path d="M73.4382 51.8051C71.0258 49.3926 67.1006 49.3926 64.6881 51.8051C63.0402 53.453 62.4679 55.8814 63.1814 58.0846L56.2134 65.0526C56.1079 65.1581 56.0486 65.3009 56.0486 65.4503V68.6323C56.0486 68.9432 56.3002 69.1948 56.6111 69.1948H59.7931C59.9425 69.1948 60.0853 69.1355 60.1907 69.03L60.9861 68.2341C61.1075 68.1127 61.1668 67.9424 61.1471 67.7716L61.0482 66.9169L62.2324 66.8053C62.5016 66.7801 62.7142 66.5675 62.7395 66.2983L62.851 65.1141L63.7057 65.2135C63.8644 65.2349 64.0243 65.1816 64.1446 65.0751C64.2643 64.968 64.3329 64.8152 64.3329 64.6549V63.6076H65.3612C65.5106 63.6076 65.6534 63.5483 65.7589 63.4428L67.2013 62.0194C69.404 62.7335 71.7904 62.2042 73.4382 60.5553C75.8507 58.1428 75.8507 54.2176 73.4382 51.8051ZM71.847 55.7825C71.189 56.4406 70.1189 56.4406 69.4609 55.7825C68.8028 55.1244 68.8028 54.0544 69.4609 53.3964C70.1189 52.7383 71.189 52.7383 71.847 53.3964C72.5051 54.0544 72.505 55.1244 71.847 55.7825Z" fill="#00458B"/>
</g>
<path d="M91.3341 102.606C91.1683 94.9237 90.9756 87.0755 88.3441 79.854C86.8491 75.7494 84.5931 71.9326 83.3737 67.7378C82.4128 64.4332 82.6421 60.9237 82.6713 57.48C82.686 55.6557 82.6981 53.7924 82.1323 52.0584C81.6446 50.5439 80.7105 49.1562 80.5081 47.5758C82.6396 49.1294 84.898 50.8561 85.6711 53.3778C86.0467 54.5973 86.0321 55.9094 86.2345 57.1727C86.8881 61.2602 89.7367 64.5893 91.7658 68.1963C96.224 76.1275 96.7801 85.6146 96.7362 94.7115C96.7362 96.6821 96.6776 98.7283 95.8119 100.501C94.9461 102.274 93.2754 102.962 91.3341 102.606Z" fill="url(#paint2_linear)"/>
<path d="M50.4494 94.0773C50.4179 94.1009 50.3878 94.1261 50.3591 94.1529H46.5521C46.5521 94.1529 40.1867 92.814 39.8501 82.0855C39.8501 82.0855 42.1402 89.3045 49.9884 87.7607C49.9884 87.7607 45.8302 94.5383 50.4494 94.0773Z" fill="white"/>
<path d="M50.4494 94.0773C50.4179 94.1009 50.3878 94.1261 50.3591 94.1529H46.5521C46.5521 94.1529 40.1867 92.814 39.8501 82.0855C39.8501 82.0855 42.1402 89.3045 49.9884 87.7607C49.9884 87.7607 45.8302 94.5383 50.4494 94.0773Z" fill="url(#paint3_linear)"/>
<path d="M85.942 32.2549H48.5252C48.1426 32.2549 47.8325 32.565 47.8325 32.9476C47.8325 33.3301 48.1426 33.6402 48.5252 33.6402H85.942C86.3246 33.6402 86.6347 33.3301 86.6347 32.9476C86.6347 32.565 86.3246 32.2549 85.942 32.2549Z" fill="url(#paint4_linear)"/>
<path d="M85.942 36.4131H48.5252C48.1426 36.4131 47.8325 36.7232 47.8325 37.1057C47.8325 37.4883 48.1426 37.7984 48.5252 37.7984H85.942C86.3246 37.7984 86.6347 37.4883 86.6347 37.1057C86.6347 36.7232 86.3246 36.4131 85.942 36.4131Z" fill="url(#paint5_linear)"/>
<path d="M85.942 40.569H48.5252C48.1426 40.569 47.8325 40.8791 47.8325 41.2616C47.8325 41.6441 48.1426 41.9542 48.5252 41.9542H85.942C86.3246 41.9542 86.6347 41.6441 86.6347 41.2616C86.6347 40.8791 86.3246 40.569 85.942 40.569Z" fill="url(#paint6_linear)"/>
<path d="M85.942 44.7272H48.5252C48.1426 44.7272 47.8325 45.0373 47.8325 45.4199C47.8325 45.8024 48.1426 46.1125 48.5252 46.1125H85.942C86.3246 46.1125 86.6347 45.8024 86.6347 45.4199C86.6347 45.0373 86.3246 44.7272 85.942 44.7272Z" fill="url(#paint7_linear)"/>
<path d="M85.942 48.8854H48.5252C48.1426 48.8854 47.8325 49.1955 47.8325 49.5781C47.8325 49.9606 48.1426 50.2707 48.5252 50.2707H85.942C86.3246 50.2707 86.6347 49.9606 86.6347 49.5781C86.6347 49.1955 86.3246 48.8854 85.942 48.8854Z" fill="url(#paint8_linear)"/>
<path d="M77.6816 12.532V14.7952C77.6823 15.4504 77.5537 16.0992 77.3033 16.7046C77.0529 17.31 76.6855 17.8601 76.2223 18.3233C75.759 18.7866 75.2089 19.1539 74.6035 19.4043C73.9982 19.6548 73.3493 19.7833 72.6942 19.7827H59.3488C58.6933 19.7833 58.0441 19.6548 57.4383 19.4045C56.8325 19.1542 56.2819 18.7869 55.8181 18.3238C55.3543 17.8606 54.9862 17.3106 54.735 16.7052C54.4838 16.0997 54.3543 15.4507 54.354 14.7952V12.532C54.3553 11.2084 54.8822 9.93942 55.8188 9.00416C56.7554 8.0689 58.0251 7.54388 59.3488 7.54453H72.6942C73.3492 7.54421 73.9979 7.67299 74.6032 7.92352C75.2084 8.17405 75.7584 8.54141 76.2216 9.0046C76.6847 9.46779 77.0521 10.0177 77.3026 10.623C77.5532 11.2282 77.682 11.8769 77.6816 12.532Z" fill="#00458B"/>
<path d="M54.3904 12.4734V14.7391C54.3885 15.3951 54.5161 16.0451 54.7659 16.6518C55.0157 17.2585 55.3828 17.8098 55.8462 18.2743C56.3095 18.7388 56.86 19.1073 57.466 19.3585C58.0721 19.6098 58.7218 19.739 59.3779 19.7387H60.3802C59.7241 19.739 59.0744 19.6098 58.4684 19.3585C57.8624 19.1073 57.3119 18.7388 56.8485 18.2743C56.3852 17.8098 56.0181 17.2585 55.7683 16.6518C55.5184 16.0451 55.3908 15.3951 55.3928 14.7391V12.4734C55.3924 11.8183 55.5212 11.1696 55.7718 10.5644C56.0223 9.95911 56.3897 9.40917 56.8528 8.94598C57.316 8.48279 57.866 8.11543 58.4712 7.8649C59.0765 7.61437 59.7252 7.48558 60.3802 7.4859H59.3779C58.7228 7.48558 58.0741 7.61437 57.4689 7.8649C56.8636 8.11543 56.3137 8.48279 55.8505 8.94598C55.3873 9.40917 55.0199 9.95911 54.7694 10.5644C54.5189 11.1696 54.3901 11.8183 54.3904 12.4734Z" fill="url(#paint9_linear)"/>
<path d="M77.6815 12.532V14.7952C77.6821 15.4504 77.5535 16.0992 77.3031 16.7046C77.0527 17.31 76.6854 17.8601 76.2221 18.3233C75.7588 18.7866 75.2088 19.1539 74.6034 19.4043C73.998 19.6548 73.3491 19.7833 72.694 19.7827H60.3485C59.693 19.7833 59.0439 19.6548 58.438 19.4045C57.8322 19.1542 57.2817 18.7869 56.8178 18.3238C56.354 17.8606 55.986 17.3106 55.7348 16.7052C55.4835 16.0997 55.3541 15.4507 55.3538 14.7952V12.532C55.3551 11.2084 55.8819 9.93942 56.8186 9.00416C57.7552 8.0689 59.0249 7.54388 60.3485 7.54453H72.694C73.3491 7.54421 73.9977 7.67299 74.603 7.92352C75.2082 8.17405 75.7582 8.54141 76.2214 9.0046C76.6846 9.46779 77.0519 10.0177 77.3025 10.623C77.553 11.2282 77.6818 11.8769 77.6815 12.532Z" fill="url(#paint10_linear)"/>
<path d="M33.8212 55.4265C33.8091 55.5692 33.8173 55.7129 33.8456 55.8533C33.3773 55.5411 32.8456 54.5241 32.3822 53.3022C32.0969 52.5535 31.375 48.9367 31.375 48.1343C31.375 46.2881 32.6456 44.7443 33.9821 43.4175C33.6822 45.9759 34.2236 51.4975 33.8212 55.4265Z" fill="url(#paint11_linear)"/>
<defs>
<linearGradient id="paint0_linear" x1="33.748" y1="66.5695" x2="45.9448" y2="66.5695" gradientUnits="userSpaceOnUse">
<stop stop-color="#010101" stop-opacity="0"/>
<stop offset="0.95" stop-color="#010101"/>
</linearGradient>
<linearGradient id="paint1_linear" x1="45.4034" y1="125.761" x2="87.4395" y2="-21.1341" gradientUnits="userSpaceOnUse">
<stop stop-color="#010101" stop-opacity="0"/>
<stop offset="0.47" stop-color="#010101" stop-opacity="0.47"/>
<stop offset="0.95" stop-color="#010101"/>
</linearGradient>
<linearGradient id="paint2_linear" x1="5852.2" y1="17864.9" x2="10794.1" y2="17077.5" gradientUnits="userSpaceOnUse">
<stop stop-color="#010101" stop-opacity="0"/>
<stop offset="0.47" stop-color="#010101" stop-opacity="0.47"/>
<stop offset="0.95" stop-color="#010101"/>
</linearGradient>
<linearGradient id="paint3_linear" x1="2370.42" y1="4248.85" x2="1182.53" y2="5537.71" gradientUnits="userSpaceOnUse">
<stop stop-color="#010101" stop-opacity="0"/>
<stop offset="0.95" stop-color="#010101"/>
</linearGradient>
<linearGradient id="paint4_linear" x1="7522.68" y1="217.133" x2="13696.1" y2="217.133" gradientUnits="userSpaceOnUse">
<stop stop-color="#010101" stop-opacity="0"/>
<stop offset="0.95" stop-color="#010101"/>
</linearGradient>
<linearGradient id="paint5_linear" x1="7522.68" y1="244.911" x2="13696.1" y2="244.911" gradientUnits="userSpaceOnUse">
<stop stop-color="#010101" stop-opacity="0"/>
<stop offset="0.95" stop-color="#010101"/>
</linearGradient>
<linearGradient id="paint6_linear" x1="7522.68" y1="272.684" x2="13696.1" y2="272.684" gradientUnits="userSpaceOnUse">
<stop stop-color="#010101" stop-opacity="0"/>
<stop offset="0.95" stop-color="#010101"/>
</linearGradient>
<linearGradient id="paint7_linear" x1="7522.68" y1="300.449" x2="13696.1" y2="300.449" gradientUnits="userSpaceOnUse">
<stop stop-color="#010101" stop-opacity="0"/>
<stop offset="0.95" stop-color="#010101"/>
</linearGradient>
<linearGradient id="paint8_linear" x1="7522.68" y1="328.225" x2="13696.1" y2="328.225" gradientUnits="userSpaceOnUse">
<stop stop-color="#010101" stop-opacity="0"/>
<stop offset="0.95" stop-color="#010101"/>
</linearGradient>
<linearGradient id="paint9_linear" x1="1366.47" y1="704.793" x2="1968.6" y2="731.309" gradientUnits="userSpaceOnUse">
<stop stop-color="#010101" stop-opacity="0"/>
<stop offset="0.47" stop-color="#010101" stop-opacity="0.47"/>
<stop offset="0.95" stop-color="#010101"/>
</linearGradient>
<linearGradient id="paint10_linear" x1="67.3115" y1="0.976695" x2="65.9311" y2="23.041" gradientUnits="userSpaceOnUse">
<stop stop-color="white" stop-opacity="0"/>
<stop offset="0.95" stop-color="white"/>
</linearGradient>
<linearGradient id="paint11_linear" x1="372.336" y1="2495.37" x2="1084.38" y2="2560.67" gradientUnits="userSpaceOnUse">
<stop stop-color="#010101" stop-opacity="0"/>
<stop offset="0.95" stop-color="#010101"/>
</linearGradient>
<clipPath id="clip0">
<rect x="56.0476" y="49.9962" width="19.1991" height="19.1991" fill="white"/>
</clipPath>
</defs>
</svg>

<svg width="125" height="114" fill="none" xmlns="http://www.w3.org/2000/svg"><path d="M98.402 17.141v78.56a7.526 7.526 0 01-7.521 7.532H41.265a7.53 7.53 0 01-5.322-2.207 7.53 7.53 0 01-2.2-5.324v-78.56a7.522 7.522 0 017.522-7.522H90.88a7.526 7.526 0 017.521 7.521z" fill="#00458B"/><path d="M45.945 62.309c-1.493 3.658-4.734 6.134-7.539 8.75-1.444 1.347-2.558 2.849-3.846 4.308a3.068 3.068 0 01-.812.624V61.045c.399-1.268.655-2.577.763-3.902.488 1.608.269 3.568 1.508 4.71.797.746 1.97.878 3.06.927 2.3.093 4.601-.065 6.866-.471z" fill="url(#paint0_linear)"/><path d="M91.717 16.32H39.211v78.682h52.506V16.319z" fill="url(#paint1_linear)"/><path d="M92.48 15.698v78.455H46.553s-6.365-1.339-6.702-12.067c-.337-10.729.337-66.388.337-66.388H92.48z" fill="#fff"/><g clip-path="url(#clip0)"><path d="M73.438 51.805a6.194 6.194 0 00-8.75 0 6.185 6.185 0 00-1.507 6.28l-6.968 6.968a.562.562 0 00-.164.397v3.182c0 .311.251.563.562.563h3.182c.15 0 .292-.06.398-.165l.795-.796a.563.563 0 00.161-.462l-.099-.855 1.184-.112a.562.562 0 00.508-.507l.111-1.184.855.1a.564.564 0 00.627-.559v-1.047h1.028c.15 0 .292-.06.398-.165l1.442-1.424c2.203.715 4.59.185 6.237-1.464a6.194 6.194 0 000-8.75zm-1.591 3.977a1.689 1.689 0 01-2.386 0 1.689 1.689 0 010-2.386 1.689 1.689 0 012.386 0 1.689 1.689 0 010 2.386z" fill="#00458B"/></g><path d="M91.334 102.606c-.166-7.682-.358-15.53-2.99-22.752-1.495-4.105-3.75-7.921-4.97-12.116-.961-3.305-.732-6.814-.703-10.258.015-1.824.027-3.688-.539-5.422-.487-1.514-1.422-2.902-1.624-4.482 2.132 1.553 4.39 3.28 5.163 5.802.376 1.22.361 2.531.563 3.795.654 4.087 3.503 7.416 5.532 11.023 4.458 7.931 5.014 17.419 4.97 26.516 0 1.97-.058 4.016-.924 5.789-.866 1.773-2.537 2.461-4.478 2.105z" fill="url(#paint2_linear)"/><path d="M50.45 94.077a1.088 1.088 0 00-.09.076h-3.808s-6.365-1.339-6.702-12.068c0 0 2.29 7.22 10.138 5.676 0 0-4.158 6.777.461 6.316z" fill="#fff"/><path d="M50.45 94.077a1.088 1.088 0 00-.09.076h-3.808s-6.365-1.339-6.702-12.068c0 0 2.29 7.22 10.138 5.676 0 0-4.158 6.777.461 6.316z" fill="url(#paint3_linear)"/><path d="M85.942 32.255H48.525a.693.693 0 100 1.385h37.417a.693.693 0 100-1.385z" fill="url(#paint4_linear)"/><path d="M85.942 36.413H48.525a.693.693 0 100 1.385h37.417a.693.693 0 100-1.385z" fill="url(#paint5_linear)"/><path d="M85.942 40.569H48.525a.693.693 0 100 1.385h37.417a.693.693 0 100-1.385z" fill="url(#paint6_linear)"/><path d="M85.942 44.727H48.525a.693.693 0 100 1.386h37.417a.693.693 0 100-1.386z" fill="url(#paint7_linear)"/><path d="M85.942 48.885H48.525a.693.693 0 100 1.386h37.417a.693.693 0 100-1.386z" fill="url(#paint8_linear)"/><path d="M77.682 12.532v2.263a4.982 4.982 0 01-4.988 4.988H59.35a4.991 4.991 0 01-4.995-4.988v-2.263a4.993 4.993 0 014.995-4.987h13.345a4.985 4.985 0 014.988 4.987z" fill="#00458B"/><path d="M54.39 12.473v2.266a4.986 4.986 0 004.988 5h1.002a4.985 4.985 0 01-4.987-5v-2.266a4.982 4.982 0 013.078-4.608 4.985 4.985 0 011.91-.38h-1.003a4.985 4.985 0 00-4.988 4.988z" fill="url(#paint9_linear)"/><path d="M77.681 12.532v2.263a4.984 4.984 0 01-4.987 4.988H60.348a4.992 4.992 0 01-4.994-4.988v-2.263a4.992 4.992 0 014.995-4.987h12.345a4.985 4.985 0 014.987 4.987z" fill="url(#paint10_linear)"/><path d="M33.821 55.426c-.012.143-.004.287.025.427-.469-.312-1-1.329-1.464-2.55-.285-.75-1.007-4.366-1.007-5.169 0-1.846 1.27-3.39 2.607-4.717-.3 2.559.242 8.08-.16 12.01z" fill="url(#paint11_linear)"/><defs><linearGradient id="paint1_linear" x1="45.403" y1="125.761" x2="87.439" y2="-21.134" gradientUnits="userSpaceOnUse"><stop stop-color="#010101" stop-opacity="0"/><stop offset=".47" stop-color="#010101" stop-opacity=".47"/><stop offset=".95" stop-color="#010101"/></linearGradient><linearGradient id="paint6_linear" x1="7522.68" y1="272.684" x2="13696.1" y2="272.684" gradientUnits="userSpaceOnUse"><stop stop-color="#010101" stop-opacity="0"/><stop offset=".95" stop-color="#010101"/></linearGradient><linearGradient id="paint2_linear" x1="5852.2" y1="17864.9" x2="10794.1" y2="17077.5" gradientUnits="userSpaceOnUse"><stop stop-color="#010101" stop-opacity="0"/><stop offset=".47" stop-color="#010101" stop-opacity=".47"/><stop offset=".95" stop-color="#010101"/></linearGradient><linearGradient id="paint3_linear" x1="2370.42" y1="4248.85" x2="1182.53" y2="5537.71" gradientUnits="userSpaceOnUse"><stop stop-color="#010101" stop-opacity="0"/><stop offset=".95" stop-color="#010101"/></linearGradient><linearGradient id="paint4_linear" x1="7522.68" y1="217.133" x2="13696.1" y2="217.133" gradientUnits="userSpaceOnUse"><stop stop-color="#010101" stop-opacity="0"/><stop offset=".95" stop-color="#010101"/></linearGradient><linearGradient id="paint5_linear" x1="7522.68" y1="244.911" x2="13696.1" y2="244.911" gradientUnits="userSpaceOnUse"><stop stop-color="#010101" stop-opacity="0"/><stop offset=".95" stop-color="#010101"/></linearGradient><linearGradient id="paint0_linear" x1="33.748" y1="66.57" x2="45.945" y2="66.57" gradientUnits="userSpaceOnUse"><stop stop-color="#010101" stop-opacity="0"/><stop offset=".95" stop-color="#010101"/></linearGradient><linearGradient id="paint7_linear" x1="7522.68" y1="300.449" x2="13696.1" y2="300.449" gradientUnits="userSpaceOnUse"><stop stop-color="#010101" stop-opacity="0"/><stop offset=".95" stop-color="#010101"/></linearGradient><linearGradient id="paint8_linear" x1="7522.68" y1="328.225" x2="13696.1" y2="328.225" gradientUnits="userSpaceOnUse"><stop stop-color="#010101" stop-opacity="0"/><stop offset=".95" stop-color="#010101"/></linearGradient><linearGradient id="paint9_linear" x1="1366.47" y1="704.793" x2="1968.6" y2="731.309" gradientUnits="userSpaceOnUse"><stop stop-color="#010101" stop-opacity="0"/><stop offset=".47" stop-color="#010101" stop-opacity=".47"/><stop offset=".95" stop-color="#010101"/></linearGradient><linearGradient id="paint10_linear" x1="67.311" y1=".977" x2="65.931" y2="23.041" gradientUnits="userSpaceOnUse"><stop stop-color="#fff" stop-opacity="0"/><stop offset=".95" stop-color="#fff"/></linearGradient><linearGradient id="paint11_linear" x1="372.336" y1="2495.37" x2="1084.38" y2="2560.67" gradientUnits="userSpaceOnUse"><stop stop-color="#010101" stop-opacity="0"/><stop offset=".95" stop-color="#010101"/></linearGradient><clipPath id="clip0"><path fill="#fff" d="M56.048 49.996h19.199v19.199H56.048z"/></clipPath></defs></svg>
